frontend/src/assets/icons/send-02.svg

<svg width="24" height="24" viewBox="0 0 24 24" fill="none" xmlns="http://www.w3.org/2000/svg">
<g id="send-02">
<path id="Icon" d="M12.0005 18.9998V11.9998M12.292 19.0845L19.2704 21.4207C19.8173 21.6038 20.0908 21.6953 20.2594 21.6296C20.4059 21.5726 20.517 21.45 20.5594 21.2987C20.6082 21.1244 20.4903 20.8613 20.2545 20.3349L12.766 3.6222C12.5354 3.1075 12.4201 2.85015 12.2594 2.77041C12.1199 2.70113 11.956 2.70087 11.8162 2.7697C11.6553 2.84892 11.5392 3.1059 11.3069 3.61986L3.75244 20.3359C3.51474 20.8619 3.39589 21.1248 3.44422 21.2993C3.48619 21.4508 3.59697 21.5737 3.74329 21.6312C3.91178 21.6974 4.18567 21.6064 4.73346 21.4246L11.786 19.0838C11.8799 19.0527 11.9268 19.0371 11.9749 19.0309C12.0175 19.0255 12.0606 19.0255 12.1032 19.0311C12.1512 19.0374 12.1981 19.0531 12.292 19.0845Z" stroke="black" stroke-width="2" stroke-linecap="round" stroke-linejoin="round"/>
</g>
</svg>

<svg xmlns="http://www.w3.org/2000/svg" width="24" height="24" fill="none" viewBox="0 0 24 24">
  <path stroke="#000" stroke-linecap="round" stroke-linejoin="round" stroke-width="2" d="M12 19v-7m.292 7.084 6.978 2.337c.547.183.82.274.99.209a.5.5 0 0 0 .3-.331c.048-.175-.07-.438-.305-.964l-7.49-16.713c-.23-.514-.346-.772-.507-.852a.5.5 0 0 0-.443 0c-.16.079-.277.336-.51.85L3.753 20.336c-.237.526-.356.789-.308.963a.5.5 0 0 0 .3.332c.168.066.442-.025.99-.206l7.052-2.341c.094-.031.14-.047.189-.053a.5.5 0 0 1 .128 0c.048.006.095.022.189.053Z"/>
</svg>
